X: 41463
T: Two Trees
R: strathspey
M: 4/4
K: Gmajor
D|B8-|-B8-|-BDGA BAGA|AE-E4 ED|
EG-G6|{/F}(G4G3) {/A}G|z D EG (3G2d2B2|A6 (3AGD|
(D8|D3) B cBAG|AE-E6-|-E4 z E ED|
EG-G6-|-G4 z D GA|AB-B6-|-B8-|
-BDGA BAGA|A E5 ED|E G3 {/F}G3 G-|-G8|
(3z2d2f2 (3g2f2e2|d6 AG|A8|z2 z B cBAG|
D (E(E6)|E2) EE z2 ED|E G3 {/F}G4-|-G2 B2 F2 FE|
|:EGAB g2 gf|EGAB f2 fe|EGAB e2 eb,|dded fg e2|EGAB gaba-|
-aBde gega|1 EGAB e2 e/d/B|dded fge2:|2 EGABe3 d||
A B-B6-|-B8|z D GA (3B2d2B2|
E6 ED|EG-G6-|-G8|z D Gd BcBA|
A6 AG|D8-|-D3 B cBAG|AE-E6-|
E4 z2 ED|EG-G6-|-G4 z D GA|AB-B6-|
-B8-|-BDGA BAGA|E8-|-E4 z2 ED|EG-G6-|
-G4 z (3D/E/F/ (6G/A/d/e/f/g/|a6 (3agd|d8-|-d3 B cBAG|
A2 E4 E2-|-E2 E4 ED|EG-G6|GF z F z G z2|
|:EGAB g2 gb|EGAB f2 fa|EGAB e2 eb,|dded fg e2|
[1 EGAB gaba-|-aBde gega|a2 agb4-|-b2 (3age {/g}a3 g:|
[2 EGAB gaba-|-aBde fg e2|EGAB d/e/e e/d/b,|d8||

